UI/Misc/SVG/car-rig_outline_24px.svg

<svg width="24" height="24" viewBox="0 0 24 24" fill="none" xmlns="http://www.w3.org/2000/svg">
<path d="M22.0001 11H19.4501L18.5901 9.82C18.4037 9.57258 18.164 9.37036 17.8887 9.22839C17.6134 9.08642 17.3097 9.00835 17.0001 9V11.05L19.2901 14.18L20.0001 15.18V20H18.0001V18H6.00005V20H4.00005V15.16L4.71005 14.16L7.00005 11.05V9C6.69043 9.00835 6.38668 9.08642 6.11139 9.22839C5.83611 9.37036 5.59638 9.57258 5.41005 9.82L4.55005 11H2.00005V13H3.10005L2.33005 14.06C2.11312 14.348 1.99714 14.6995 2.00005 15.06V20C2.00005 20.5304 2.21077 21.0391 2.58584 21.4142C2.96091 21.7893 3.46962 22 4.00005 22H7.00005C7.26527 22 7.51962 21.8946 7.70716 21.7071C7.8947 21.5196 8.00005 21.2652 8.00005 21V20H16.0001V21C16.0001 21.2652 16.1054 21.5196 16.2929 21.7071C16.4805 21.8946 16.7348 22 17.0001 22H20.0001C20.5305 22 21.0392 21.7893 21.4143 21.4142C21.7893 21.0391 22.0001 20.5304 22.0001 20V15.06C22.003 14.6995 21.887 14.348 21.6701 14.06L20.9001 13H22.0001V11ZM18.0001 16H6.00005L7.50005 14H16.5001L18.0001 16ZM9.50005 3V6C9.50005 6.26522 9.60541 6.51957 9.79295 6.70711C9.98048 6.89464 10.2348 7 10.5001 7H13.5001C13.7653 7 14.0196 6.89464 14.2072 6.70711C14.3947 6.51957 14.5001 6.26522 14.5001 6V3C14.5001 2.73478 14.3947 2.48043 14.2072 2.29289C14.0196 2.10536 13.7653 2 13.5001 2H10.5001C10.2348 2 9.98048 2.10536 9.79295 2.29289C9.60541 2.48043 9.50005 2.73478 9.50005 3ZM12.0001 5.5C11.8023 5.5 11.6089 5.44135 11.4445 5.33147C11.28 5.22159 11.1519 5.06541 11.0762 4.88268C11.0005 4.69996 10.9807 4.49889 11.0193 4.30491C11.0579 4.11093 11.1531 3.93275 11.2929 3.79289C11.4328 3.65304 11.611 3.5578 11.805 3.51921C11.9989 3.48063 12.2 3.50043 12.3827 3.57612C12.5655 3.65181 12.7216 3.77998 12.8315 3.94443C12.9414 4.10888 13.0001 4.30222 13.0001 4.5C13.0001 4.76522 12.8947 5.01957 12.7072 5.20711C12.5196 5.39464 12.2653 5.5 12.0001 5.5ZM13.0001 9H11.0001V7H13.0001V9ZM15.0001 11H9.00005V9H15.0001V11Z" fill="#0F1621"/>
</svg>

<svg xmlns="http://www.w3.org/2000/svg" width="24" height="24" viewBox="0 0 24 24"><rect width="24" height="24" style="fill:none"/><path d="M22,11H19.45l-.86-1.18A2.06,2.06,0,0,0,17,9v2.05l2.29,3.13.71,1V20H18V18H6v2H4V15.16l.71-1L7,11.05V9a2.06,2.06,0,0,0-1.59.82L4.55,11H2v2H3.1l-.77,1.06a1.64,1.64,0,0,0-.33,1V20a2,2,0,0,0,2,2H7a1,1,0,0,0,1-1V20h8v1a1,1,0,0,0,1,1h3a2,2,0,0,0,2-2V15.06a1.64,1.64,0,0,0-.33-1L20.9,13H22Zm-4,5H6l1.5-2h9ZM9.5,3V6a1,1,0,0,0,1,1h3a1,1,0,0,0,1-1V3a1,1,0,0,0-1-1h-3A1,1,0,0,0,9.5,3ZM12,5.5a1,1,0,1,1,1-1A1,1,0,0,1,12,5.5ZM13,9H11V7h2Zm2,2H9V9h6Z"/></svg>
